src/actions/24/view-pim-tasks-pending.svg

<svg xmlns="http://www.w3.org/2000/svg" viewBox="0 0 24 24">
  <defs id="defs3051">
    <style type="text/css" id="current-color-scheme">
      .ColorScheme-Text {
        color:#363636;
      }
      .ColorScheme-NeutralText {
        color:#f67400;
      }
      </style>
  </defs>
  <path style="fill:currentColor;fill-opacity:1;stroke:none" 
     d="M 4 4 L 4 20 L 14 20 L 15 20 L 15 19 L 14 19 L 5 19 L 5 8 L 19 8 L 19 14 L 19 15 L 20 15 L 20 14 L 20 4 L 18 4 L 18 7 L 16 7 L 16 4 L 8 4 L 8 7 L 6 7 L 6 4 L 4 4 z M 15.292969 10 L 10.701172 14.591797 L 9.5546875 13.445312 L 8.8476562 14.152344 L 10.693359 16 L 10.699219 15.992188 L 10.707031 16 L 16 10.707031 L 15.292969 10 z "
     class="ColorScheme-Text"
     />
  <path
       style="fill:currentColor;fill-opacity:1;stroke:none" 
     class="ColorScheme-NeutralText"
   d="M 17 15 L 17 18 L 18 18 L 18 15 L 17 15 z M 17 19 L 17 20 L 18 20 L 18 19 L 17 19 z "
      />
</svg>

<svg xmlns="http://www.w3.org/2000/svg" viewBox="0 0 24 24">
    <path d="M4 4v16h11v-1H5V8h14v7h1V4h-2v3h-2V4H8v3H6V4H4zm11.293 6-4.592 4.592-1.146-1.147-.707.707L10.693 16l.006-.008.008.008L16 10.707 15.293 10z" style="fill:currentColor;fill-opacity:1;stroke:none;color:#050505;opacity:.7"/>
    <path d="M17 15v3h1v-3h-1zm0 4v1h1v-1h-1z" style="fill:currentColor;fill-opacity:1;stroke:none;color:#f5cba3"/>
</svg>
